!!!OTL: Verschlafener Jaeger Es wollt es ein Jaegerlein jagen
!!!ARE: Europa, Mitteleuropa, Deutschland / France, Lothringen, Forbach, Hellimer
!!!YOR: 7, S. 215
!!    1932 aufgezeichnet
!!!SCT: Q0152G
!!!YEM: Copyright 1995, estate of Helmut Schaffrath.
**kern
*ICvox
*Ivox
*M3/4
*k[f#]
*G:
{4d
=1
4.g
8a
4b
=2
4a
4g
4f#
=3
4.g
8a
4b
=4
2a}
{4d
=5
4.g
8a
4b
=6
4a
4g
4f#
=7
4.g
8a
4b
=8
2a}
{4g
=9
4.g
8b
4cc
=10
4.dd
8ee
4dd
=11
4cc
4b
4a
=12
2.b
=13
2a}
{4g
=14
4.g
8b
4cc
=15
4.dd
8ee
4dd
=16
4cc
4b
4a
=17
2g}
==
!!!AGN: Ballade, Verfuehrung, Versagen, Spott
!!!ONB: ESAC (Essen Associative Code) Database: BALLADE
!!!AMT: simple triple
!!!AIN: vox
!!!EED: Helmut Schaffrath
!!!EEV: 1.0
*-
